!!!OTL: Gottesgericht. / (Frankfurter Sage.)
!!!OTL-incipit: ZU FRANKFURT DA STEHET EIN WIRTSHAUS
!!!ARE: Europa, Mitteleuropa, Deutschland, Niederrhein
!!!SCT: Z1002
!!!TXL: @@DE
!!!YEM: Copyright 1995, estate of Helmut Schaffrath.
**kern	**text
*ICvox	*
*M6/8	*
*k[b-e-]	*
*g:	*
!LO:TX:a:t=Vorſänger.	!
!LO:TX:a:t=Vom Niederrhein.	!
{8d	Ʒu
=1	=1
8g	Frankfurt,
8f#	.
8g	da
8a	ſte-
8g	-het
8a	ein
=2	=2
8b-/	Wirthshaus,
8g	.
8r	.
!LO:TX:a:t=Alle.	!
4.a	ja
=3	=3
(>4b-/	Wirths-
8cc/)	.
4dd;}	-haus!
!LO:TX:a:t=Vorſänger.	!
{(16ddL	Da
16ccJ)	.
=4	=4
8b-/	ʒa-
8a	-pfen
8g	ſie
8aL	Bier
8gJ	.
8f#	und
=5	=5
4g	Wein,
8r	.
4r}	.
{8d	d'rin
=6	=6
8g	ge-
8f#	-hen
8g	die
8aL	Jung-
8gJ	.
8a	-ge-
=7	=7
8b-/	-ſel-
8g	-len,
8r	.
!LO:TX:a:t=Alle.	!
4.a	Ge-
=8	=8
(>4b-/	-ſel-
8cc/)	.
4dd/}	-len!
!LO:TX:a:t=Vorſänger.	!
{16ddL	tag-
16ccJ	.
=9	=9
8b-L	-täg-
8aJ	.
8g	-lich
8f#L	aus
8gJ	.
8a	und
=10	=10
4.g	ein!
4r}	.
==	==
!!!AGN: Romanze, Ballade, Frankfurter Sage
!!!ONB: ESAC (Essen Associative Code) Database: ZUCCAL
!!!AMT: compound duple
!!!AIN: vox
!!!EED: Helmut Schaffrath
!!!EEV: 1.0
!!@@COMMENT:"In original two - three voices"
!!@@END:
!!!RDF**kern: >= above
!!!GTL: I. Volks- Leuschen.
!!!URL-scan: https://www.digitale-sammlungen.de/de/view/bsb11160573?page=13
!!!ENC: Anna Maria Matuszewska
!!!EEV: 2025/01/31
*-	*-
